cloud-upload.svg

<svg fill="currentColor" viewBox="0 0 24 24"><path d="M11 20H6.5q-2.28 0-3.89-1.57Q1 16.85 1 14.58q0-1.95 1.17-3.48 1.18-1.53 3.08-1.95.63-2.3 2.5-3.72Q9.63 4 12 4q2.93 0 4.96 2.04Q19 8.07 19 11q1.73.2 2.86 1.5 1.14 1.28 1.14 3 0 1.88-1.31 3.19T18.5 20H13v-7.15l1.6 1.55L16 13l-4-4-4 4 1.4 1.4 1.6-1.55Z"/></svg>

<svg  viewBox="0 0 24 24" fill="currentColor"><path  d="M11 20H6.5Q4.22 20 2.61 18.43 1 16.85 1 14.58 1 12.63 2.17 11.1 3.35 9.57 5.25 9.15 5.88 6.85 7.75 5.43 9.63 4 12 4 14.93 4 16.96 6.04 19 8.07 19 11 20.73 11.2 21.86 12.5 23 13.78 23 15.5 23 17.38 21.69 18.69 20.38 20 18.5 20H13V12.85L14.6 14.4L16 13L12 9L8 13L9.4 14.4L11 12.85Z"/></svg>
